X: 38694
T: Strawberries Galore
R: jig
M: 6/8
K: Amajor
|:cde EFG|A2 A A2 c|def eac|cBA B2 E|
cde EFG|ABc def|edc BAG|1 A3-A2 E:|2 A3-A2 c||
|:Bcd EGB|d2 d d3|cde EAc|e2 e e3|
fga agf|edc def|edc BAG|1 A3-A2 c:|2 A3-A2 z||

